X:1
T:Preach the Gospel
T:Preach the Gospel
T:James McGranahan
T:Daniel Webster Whittle, 1891
T:Public Domain Courtesy of the Cyber Hymnal™
T:Public Domain Courtesy of the Cyber Hymnal™
C:James McGranahan
Z:Public Domain
Z:Courtesy of the Cyber Hymnal™
%%score ( 1 2 ) 3
L:1/8
Q:1/4=105
M:4/4
K:C
V:1 treble 
V:2 treble 
V:3 bass 
V:1
 [EG]>[DF] | [CE]2 [CE]4 C>[CE] | [EG]6 [CE]>[EG] | [Ec]3 [Ec] [Fd]2 [Ec]2 | %4
w: 1.~Preach the|Gos- pel, sound it|forth, Tell of|free and full sal-|
w: 2.~Preach the|Gos- pel, full of|joy, While on|grace and mer- cy|
w: 3.~Preach the|Gos- pel, make it|clear, By the|blood of Christ re-|
w: 4.~Preach the|Gos- pel full of|love, Christ’s com-|pas- sion ful- ly|
w: 5.~Preach the|Gos- pel as if|God Sin- ners|lost through you were|
 [Ec]2 [DB]4 [FA]>[EG] | [DF]2 [DF]4 D>[DF] | [FA]6 F>[FA] | [^Fd]3 [Fc] [FB]2 [FA]2 | [^FA]2 G6 || %9
w: va- tion; Spread the|tid- ings o’er the|earth, Go to|ev’- ry tribe and|na- tion.|
w: dwell- ing; Heart and|soul in full em-|ploy, As the|stor- y you are|tell- ing.|
w: mis- sion; Give the|mes- sage, make them|hear, This a-|lone is our com-|mis- sion.|
w: know- ing; Seek the|pow- er from a-|bove, While His|great com- pas- sion|show- ing.|
w: seek- ing; His sal-|va- tion through the|Word Speak as|if the Lord were|speak- ing.|
"^Refrain" [EG]4- [EG]>[DF] [CE]>[DF] | [EG]2 [Ec]4 [Ec]2 | [Gd]2 [GB]4 G2 | [Ge]2 [Ec]6 | %13
w: ||||
w: ||||
w: Spread * the joy- ful|tid- ings In|an- them and|stor- y|
w: ||||
w: ||||
 [Ac]4- [Ac]>[^GB] [Ac]>[FA] | [EG]2 [Ec]4 [Ge]2 | [Gd]2 [Gf]4 [GB]2 | [Fd]2 [Ec]4 |] %17
w: ||||
w: ||||
w: Je- * sus hath re-|deemed us, Oh,|give Him the|glor- y!|
w: ||||
w: ||||
V:2
 x2 | x8 | x8 | x8 | x8 | x8 | x8 | x8 | x8 || x8 | x8 | x6 G2 | x8 | x8 | x8 | x8 | x6 |] %17
V:3
 [C,C]>[C,G,] | [C,G,]2 [C,G,]4 [C,E,]>[C,G,] | [C,C]6 [C,G,]>[C,G,] | %3
 [C,G,]3 [C,G,] [B,,G,]2 [C,G,]2 | [G,,G,]2 [G,,G,]4 [G,B,]>[G,B,] | %5
 [G,B,]2 [G,B,]4 [F,A,]>[F,A,] | [D,A,]6 [D,A,]>[D,A,] | [D,A,]3 [D,A,] [D,D]2 [D,C]2 | %8
 [G,,C]2 [G,,B,]6 || ([C,C]>[C,C][C,C]>[C,C] [C,C]2) [C,G,]2 | %10
 ([C,C]>[C,C]) ([C,G,]>[C,G,] [C,G,]2) ([C,G,]>[C,G,]) | [G,,B,]2 [G,D]4 [G,B,]2 | [C,C]2 [C,G,]6 | %13
 ([F,A,]>[F,A,][F,C]>[F,C] [F,C]2) [F,C]2 | ([C,C]>[C,C]) ([C,G,]>[C,G,] [C,G,]2) ([C,C]>[C,C]) | %15
 [F,A,]2 [G,D]4 [G,D]2 | [C,B,]2 [C,C]4 |] %17

